X:1
T:Oberlin (Bost), LM
T:Paul Ami Isaac David Bost (1790-1874)
T:Oberlin (Bost), LM
T:Public Domain
C:Paul Ami Isaac David Bost (1790-1874)
Z:Public Domain
%%score ( 1 2 ) ( 3 4 )
L:1/8
M:3/4
K:Bb
V:1 treble 
V:2 treble 
V:3 bass 
V:4 bass 
V:1
 [DF]2 [Fd]2 [Fd]2 | [Fd]2 [DB]2 [DB]2 | A2 c2 [Fd][Ec] | [DB]6 | [DF]2 [Fd]2 [Fd]2 | %5
 [Fd]2 [DB]2 [DB]2 | A2 c2 [Fd][Ec] | [DB]6 | F2 [Fc]2 [EA]2 | [DB]4 [Fd]2 | F2 c2 [EA]2 | %11
 [DB]4 F2 | e2 c2 [FA]2 | f2 d2 [FB]2 | E>c [FB]2 [EA]2 | [DB]6 |] %16
V:2
 x6 | x6 | E4 x2 | x6 | x6 | x6 | E4 x2 | x6 | x6 | x6 | F4 x2 | x4 F2 | F4 x2 | F4 x2 | x6 | x6 |] %16
V:3
 [B,,B,]2 [B,,B,]2 [B,,B,]2 | [B,,B,]4 [B,,B,]2 | C2 A,2 [F,A,]2 | [B,,B,]6 | %4
 [B,,B,]2 [B,,B,]2 [B,,B,]2 | [B,,B,]4 [B,,B,]2 | C2 A,2 [F,A,]2 | [B,,B,]6 | %8
 [F,A,]2 [F,A,]2 [F,C]2 | [B,,B,]4 [B,,B,]2 | [F,A,]4 [F,C]2 | [B,,B,]4 F,2 | C2 A,2 [E,C]2 | %13
 D,2 B,,2 [D,B,]2 | B,>E [F,D]2 [F,C]2 | [B,,B,]6 |] %16
V:4
 x6 | x6 | F,4 x2 | x6 | x6 | x6 | F,4 x2 | x6 | x6 | x6 | x6 | x6 | F,4 x2 | B,4 x2 | E,2 x4 | %15
 x6 |] %16

